X:1
T:5. Grisen gik paa gaden frem
T:5. Grisen gik paa gaden frem
T:No. 30 i Læsebogen
T:Chr. Haslerud
T:Svensk barnevers
C:Chr. Haslerud
Z:Svensk barnevers
%%score [ 1 2 3 4 ]
L:1/8
Q:1/4=68
M:2/4
K:Bb
V:1 treble nm="Soprano"
V:2 treble nm="Alto"
V:3 treble-8 nm="Tenor"
V:4 bass nm="Bass"
V:1
!f!"^Lidt raskt" (dc/) d/ (ed/) c/ | d B G/ z/ G/ A/ | (BA/G/) A ^F | G2 D z | d c/ d/ e d/ c/ | %5
w: Gri- * sen gik _ paa|ga- den frem med et|smör- * * spand i|mun- den,|ef- ter sprang Las- se og|
 d B/ c/ d/ z/ (d/e/) | (fe/) d/ c d | c2 B z |!mf! D/ z/ D/ z/ E3/2 D/4 D/4 | ^F =E/ D/ A z | z4 | %11
w: hik- sted og græd, og _|det _ af hjer- te-|grun- den.|"Las- se, Las- se! du|ta'r det saa braadt,||
 z2 z!mf! D | D D/ D/ E D/ D/ | B (A/G/) d z | z4 | z2 z!f! d | d2 c B |!>(! A2 B2 | A4!>)! | %19
w: jeg|kan vel be- ta- le, hvad|jeg har _ faat.||du|ta'r det saa|braadt, du,|Las-|
 G2 z2 |] %20
w: se."|
V:2
!f! G3/2 G/ G3/2 G/ | ^F G D/ z/ G/ F/ | (G^F/D/) F D | D2 D z | G G/ G/ G G/ G/ | %5
w: Gri- sen gik paa|ga- den frem med et|smör- * * spand i|mun- den,|ef- ter sprang Las- se og|
 F F/ F/ F/ z/ F | F3/2 F/ F F | E2 D z |!mf! C/ z/ C/ z/ C3/2 C/4 C/4 | C C/ C/ C z | z4 | %11
w: hik- sted og græd, og|det af hjer- te-|grun- den.|"Las- se, Las- se! du|ta'r det saa braadt,||
 z2 z!mf! C | C C/ C/ C C/ C/ | B, D ^F z | z4 | z2 z!f! ^F | G2 A G |!>(! G2 G2 | ^F4!>)! | %19
w: jeg|kan vel be- ta- le, hvad|jeg har faat.||du|ta'r det saa|braadt, du,|Las-|
 D2 z2 |] %20
w: se."|
V:3
!f! (BA/) B/ (cB/) G/ | A d B/ z/ d/ c/ | d2 d A | B2 B z | d e/ d/ c B/ A/ | B d/ A/ B/ z/ B | %6
w: Gri- * sen gik _ paa|ga- den frem med et|smör- spand i|mun- den,|ef- ter sprang Las- se og|hik- sted og græd, og|
 (Bc/) B/ A B | A2 B z |!mf! A/ z/ A/ z/ A3/2 A/4 A/4 | A A/ A/ A z | z4 | z2 z!mf! A | %12
w: det _ af hjer- te-|grun- den.|"Las- se, Las- se! du|ta'r det saa braadt,||jeg|
 A A/ A/ A A/ A/ | G (A/B/) A z | z4 | z2 z!f! d | d2 d d |!>(! e2 d2 | c4!>)! | B2 z2 |] %20
w: kan vel be- ta- le, hvad|jeg har _ faat.||du|ta'r det saa|braadt, du,|Las-|se."|
V:4
!f! G,3/2 G,/ (C,D,/) E,/ | D, D, G,/ z/ B,/ A,/ | (G,C/B,/) D, D, | G,2 G, z | %4
w: Gri- sen gik _ paa|ga- den frem med et|smör- * * spand i|mun- den,|
 B, C/ B,/ C, D,/ E,/ | D, D,/ F,/ B,/ z/ (B,,/C,/) | (D,A,,/) B,,/ E, D, | F,2 B, z | %8
w: ef- ter sprang Las- se og|hik- sted og græd, og _|det _ af hjer- te-|grun- den.|
!mf! ^F,/ z/ F,/ z/ F,3/2 F,/4 F,/4 | D, =E,/ ^F,/ F, D,/_E,/ | %10
w: "Las- se, Las- se! du|ta'r det saa braadt, nöf _|
"^Gryntende" D,/E,/D,/E,/ C,/D,/C,/D,/ | E,D,/B,,/ G,,!mf! ^F, | ^F, F,/ F,/ F, F,/ F,/ | %13
w: _ _ _ _ _ _ _ _|* * * * jeg|kan vel be- ta- le, hvad|
 G, (^F,/G,/) D, A,/B,/ |"^Gryntende" A,/B,/A,/B,/ G,/A,/G,/A,/ | B,A,/G,/ D,!f! C | B,2 ^F, G, | %17
w: jeg har _ faat. nöf _|_ _ _ _ _ _ _ _|* * * * du|ta'r det saa|
!>(! C,2 (B,,G,,) | D,4!>)! | G,2 z2 |] %20
w: braadt, du, _|Las-|se."|

